X:1
T:St. Croix, 76.76 D
T:St. Croix, 76.76 D
T:George Mursell Garrett, 1889
T:Public Domain Courtesy of the Cyber Hymnal™
C:George Mursell Garrett, 1889
Z:Public Domain
Z:Courtesy of the Cyber Hymnal™
%%score ( 1 2 ) ( 3 4 )
L:1/8
Q:1/4=115
M:4/4
K:A
V:1 treble 
V:2 treble 
V:3 bass 
V:4 bass 
V:1
 [B,E]2 | C2 [B,E]2 [CA]2 [Cc]2 | [Fc]4 [FB]2 [EA]2 | [DA]2 [DG]2 [DF]2 [DG]2 | [CA]6 [CE]2 | %5
 C2 [B,E]2 [CA]2 [Cc]2 | [Fc]4 [FB]2 [FA]2 | [EG]2 [EB]2 [EF]2 [^DF]2 | E6 E2 | %9
 E2 [EF]2 [EG]2 [EA]2 | [EB]4 E2 E2 | [EF]2 [EG]2 [EA]2 [DB]2 | [Cc]6 [EA]2 | %13
 [CA]2 [DB]2 [=Gc]2 [Gd]2 | [=Ge]4 [GA]2 [FA]2 | [EA]2 [Ec]2 [Dc]2 [DB]2 | [CA]6 |] %17
V:2
 x2 | C2 x6 | x8 | x8 | x8 | C2 x6 | x8 | x8 | E6 E2 | E2 x6 | x4 E2 E2 | x8 | x8 | x8 | x8 | x8 | %16
 x6 |] %17
V:3
 [E,G,]2 | [A,C]2 [G,B,]2 [F,A,]2 [E,G,]2 | [D,F,]4 [D,F,]2 [C,A,]2 | %3
 [B,,B,]2 [B,,B,]2 [E,A,]2 [E,B,]2 | [A,,A,]6 [A,,A,]2 | [A,C]2 [G,B,]2 [F,A,]2 [E,G,]2 | %6
 [^D,F,]4 [D,F,]2 [D,B,]2 | [E,B,]2 [G,B,]2 B,2 [B,,B,]2 | [E,G,]6 [E,G,]2 | %9
 [D,G,]2 [C,A,]2 [B,,D]2 [A,,C]2 | [G,,B,]4 [G,,B,]2 [E,G,]2 | [E,A,]2 [D,B,]2 [C,A,]2 [B,,G,]2 | %12
 [A,,A,]6 [A,C]2 | [=G,E]2 [F,A,]2 [E,A,]2 [D,A,]2 | [C,A,]4 [C,E]2 [D,D]2 | %15
 [E,C]2 [E,A,]2 [E,G,]2 [E,G,]2 | [A,,A,]6 |] %17
V:4
 x2 | x8 | x8 | x8 | x8 | x8 | x8 | x4 B,2 x2 | x8 | x8 | x8 | x8 | x8 | x8 | x8 | x8 | x6 |] %17

